X:175
T:Freeman's Dance. (p)1665.PLFD.175
M:6/4
L:1/4
Q:3/4=100
S:Playford, Dancing Master,2nd Supp. to 3rd Ed.,1665
O:England
H:166
Z:Chris Partington
K:G
G|G2AB2c|d2ef2f|g>agf2e|d3-d2B|
c2Bc2B|A>BGF>ED|GABF2G|G3-G2:|
|:B|ABGD3|G3-G2B|ABGGAB|c3-c2d|
e2de2d|e2fg2d|e>fge2f|g3-g2:|
